X: 3
T: The Hag's Purse
R: Jig
M: 6/8
L: 1/8
K: Dmix
|:A2D FED|A2B cAF|G2E EDE|c2d cAG|
A2D FED|A2B cAF|GEG cGE|DED D3:|
|:d2e =fed|e2d cAF|G2E EDE|c2d cAG|
|Ade =fed|e2d cAF|GEE cGE|DED D3:|